X:189
T: Alice` Reel
C: Frankie Gavin
D: DeDannan, Kevin Craford
M:4/4
L:1/8
K:Bminor
defd edBA | B2 B2 ABFA | defd e2 fa | b2 ad edBA |
defd edBA | B2 B2 ABFA | AFEF A3 c |1f3 e cdBB :|2 f3 e cdBc|
d2 AF Acdc | e2 BG Bgfe | d2 AF Acdc | fgfe dBBc |
d2 AF Acdc | e2 BG Bgfe | d2 AF Acdc | egfd e2 dB ||
